X: 2 % start of header
T:Torus:Taurus Tune
T:19 of 100,000,000,000,000
C: (Sid.)
O: Jeff Minter
R:Procedurally Generated
L: 1/8
K: D % scale: C major
V:1 name="Voice 1"
^A,16    |     |     |     | ^G,16    |     |     |     | ^F,16    |     |     |     | ^F,16    |     |     |     | :|
V:2 name="Voice 2"
F4    | ^D4    | ^C4    | ^C4    | ^D4    | ^C4    | B,4    | B,4    | ^C4    | B,4    | A,4    | A,4    | ^C4    | B,4    | A,4    | A,4    | :|
V:3 name="Voice 3"
c1^A1^G1^G1|^A1^G1^F1^F1|^G1^F1E1E1|^G1^F1E1E1|^A1^G1^F1^F1|^G1^F1E1E1|^F1E1D1D1|^F1E1D1D1|^G1^F1E1E1|^F1E1D1D1|E1D1C1C1|E1D1C1C1|^G1^F1E1E1|^F1E1D1D1|E1D1C1C1|E1D1C1C1|:|
